src/assets/outline/Moon.svg

<svg width="24" height="24" viewBox="0 0 24 24"  xmlns="http://www.w3.org/2000/svg">
<path d="M12.4599 22.75C12.2899 22.75 12.1199 22.75 11.9499 22.74C6.34995 22.49 1.66995 17.98 1.27995 12.48C0.939948 7.75999 3.66995 3.34999 8.06995 1.49999C9.31995 0.979992 9.97995 1.37999 10.2599 1.66999C10.5399 1.94999 10.9299 2.59999 10.4099 3.78999C9.94995 4.84999 9.71995 5.97999 9.72995 7.13999C9.74995 11.57 13.4299 15.33 17.9199 15.51C18.5699 15.54 19.2099 15.49 19.8299 15.38C21.1499 15.14 21.6999 15.67 21.9099 16.01C22.1199 16.35 22.3599 17.08 21.5599 18.16C19.4399 21.06 16.0699 22.75 12.4599 22.75ZM2.76995 12.37C3.10995 17.13 7.16995 21.03 12.0099 21.24C15.2999 21.4 18.4199 19.9 20.3399 17.28C20.4899 17.07 20.5599 16.92 20.5899 16.84C20.4999 16.83 20.3399 16.82 20.0899 16.87C19.3599 17 18.5999 17.05 17.8499 17.02C12.5699 16.81 8.24995 12.38 8.21995 7.15999C8.21995 5.77999 8.48995 4.44999 9.03995 3.19999C9.13995 2.97999 9.15995 2.82999 9.16995 2.74999C9.07995 2.74999 8.91995 2.76999 8.65995 2.87999C4.84995 4.47999 2.48995 8.29999 2.76995 12.37Z" />
</svg>

<?xml version="1.0" encoding="UTF-8"?>
<svg width="24" height="24" viewBox="0 0 24 24" xmlns="http://www.w3.org/2000/svg">
 <path d="m12.46 22.75c-0.17 0-0.34 0-0.51-0.01-5.6-0.25-10.28-4.76-10.67-10.26-0.34-4.72 2.39-9.13 6.79-10.98 1.25-0.52 1.91-0.12 2.19 0.17 0.28 0.28 0.67 0.93 0.15 2.12-0.45995 1.06-0.68995 2.19-0.67995 3.35 0.02 4.43 3.7 8.19 8.19 8.37 0.65 0.03 1.29-0.02 1.91-0.13 1.32-0.24 1.87 0.29 2.08 0.63s0.45 1.07-0.35 2.15c-2.12 2.9-5.49 4.59-9.1 4.59zm-9.69-10.38c0.34 4.76 4.4 8.66 9.24 8.87 3.29 0.16 6.41-1.34 8.33-3.96 0.15-0.21 0.22-0.36 0.25-0.44-0.09-0.01-0.25-0.02-0.5 0.03-0.73 0.13-1.49 0.18-2.24 0.15-5.28-0.21-9.6-4.64-9.63-9.86 0-1.38 0.27-2.71 0.82-3.96 0.1-0.22 0.12-0.37 0.13-0.45-0.09 0-0.25 0.02-0.51 0.13-3.81 1.6-6.17 5.42-5.89 9.49z"/>
</svg>
